img/fullscript-leaf-pictogram.svg

<?xml version="1.0" encoding="UTF-8"?>
<svg width="63px" height="54px" viewBox="0 0 63 54" version="1.1" xmlns="http://www.w3.org/2000/svg" xmlns:xlink="http://www.w3.org/1999/xlink">
    <!-- Generator: Sketch 48.2 (47327) - http://www.bohemiancoding.com/sketch -->
    <title>Fill 4</title>
    <desc>Created with Sketch.</desc>
    <defs></defs>
    <g id="06" stroke="none" stroke-width="1" fill="none" fill-rule="evenodd" transform="translate(-425.000000, -738.000000)">
        <g id="Page-1-Copy-4" transform="translate(399.000000, 707.000000)" fill="#88B04B">
            <path d="M82.3906575,51.962664 C82.3843325,52.009064 82.3785825,52.067064 82.3785825,52.113464 C82.3389075,52.868044 81.2176575,69.716464 60.5234075,77.314464 C60.5119075,77.320264 60.5055825,77.320264 60.4946575,77.326064 L60.4946575,66.926664 L60.5234075,66.897664 L73.0181575,53.314064 C74.1451575,52.090264 74.0761575,50.170464 72.8571575,49.027864 C71.6381575,47.891064 69.7343325,47.960664 68.6021575,49.190264 L60.5234075,57.977264 L60.4946575,58.006264 L60.4946575,48.953044 C60.5055825,48.929844 60.5119075,48.911864 60.5234075,48.888664 C61.5239075,46.638264 66.3136575,37.555464 78.1586575,37.555464 C78.2736575,37.555464 78.3886575,37.555464 78.5030825,37.561264 C83.1381575,43.158264 82.3964075,51.875664 82.3906575,51.962664 Z M54.5031575,58.006264 L54.4801575,57.977264 L46.3950825,49.190264 C45.2680825,47.960664 43.3596575,47.885264 42.1464075,49.027864 C40.9274075,50.170464 40.8526575,52.090264 41.9848325,53.314064 L54.4801575,66.897664 L54.5031575,66.920864 L54.5031575,77.326064 C54.4968325,77.326064 54.4859075,77.320264 54.4801575,77.320264 C33.7801575,69.722264 32.6589075,52.868044 32.6244075,52.125064 C32.6180825,52.072864 32.6129075,52.014864 32.6129075,51.962664 C32.6014075,51.869864 31.8251575,43.193064 36.4941575,37.561264 C36.6149075,37.555464 36.7356575,37.555464 36.8564075,37.555464 C48.7468325,37.555464 53.4739075,46.615064 54.4801575,48.900264 C54.4859075,48.917664 54.4968325,48.935064 54.5031575,48.953044 L54.5031575,58.006264 Z M81.9990825,32.434064 C81.4821575,31.912064 80.7921575,31.593064 80.0619075,31.546664 C68.7280825,30.844864 61.3968325,36.621664 57.5046575,42.056264 C53.6055825,36.621664 46.2743325,30.839064 34.9410825,31.546664 C34.2056575,31.593064 33.5156575,31.912064 32.9981575,32.434064 C25.7180825,39.776864 26.5179075,51.347864 26.6156575,52.478864 C26.6616575,53.303044 27.1325825,59.003864 30.8361575,65.546264 C34.3839075,71.816064 41.7030825,80.150664 56.4754075,84.333044 C56.5501575,84.355664 56.6306575,84.378864 56.7111575,84.402064 L56.7169075,84.402064 C56.7744075,84.419464 56.8261575,84.431064 56.8836575,84.442664 C56.9584075,84.460064 57.0325825,84.471664 57.1136575,84.483264 C57.2459075,84.506464 57.3781575,84.512264 57.5098325,84.512264 C57.6369075,84.512264 57.7634075,84.506464 57.8899075,84.483264 C57.9589075,84.471664 58.0279075,84.460064 58.0969075,84.448464 C58.1595825,84.436864 58.2234075,84.419464 58.2866575,84.402064 C58.3723325,84.378864 58.4591575,84.355664 58.5448325,84.326664 C85.8464075,76.577864 88.2154075,54.601664 88.3764075,52.542664 C88.4448325,51.869864 89.4459075,39.945064 81.9990825,32.434064 Z" id="Fill-4"></path>
        </g>
    </g>
</svg>

<?xml version="1.0" encoding="utf-8"?>
<!-- Generator: Adobe Illustrator 22.0.1, SVG Export Plug-In . SVG Version: 6.00 Build 0)  -->
<svg version="1.1" id="Layer_1" xmlns="http://www.w3.org/2000/svg" xmlns:xlink="http://www.w3.org/1999/xlink" x="0px" y="0px"
	 viewBox="0 0 63 54" style="enable-background:new 0 0 63 54;" xml:space="preserve">
<style type="text/css">
	.st0{fill:#88B04B;}
</style>
<title>Fill 4</title>
<desc>Created with Sketch.</desc>
<g id="_x30_6" transform="translate(-425.000000, -738.000000)">
	<g id="Page-1-Copy-4" transform="translate(399.000000, 707.000000)">
		<path id="Fill-4" class="st0" d="M82.4,52c0,0,0,0.1,0,0.2c0,0.8-1.2,17.6-21.9,25.2c0,0,0,0,0,0V66.9l0,0L73,53.3
			c1.1-1.2,1.1-3.1-0.2-4.3c-1.2-1.1-3.1-1.1-4.3,0.2L60.5,58l0,0V49c0,0,0,0,0-0.1c1-2.3,5.8-11.3,17.6-11.3c0.1,0,0.2,0,0.3,0
			C83.1,43.2,82.4,51.9,82.4,52z M54.5,58L54.5,58l-8.1-8.8c-1.1-1.2-3-1.3-4.2-0.2c-1.2,1.1-1.3,3.1-0.2,4.3l12.5,13.6l0,0v10.4
			c0,0,0,0,0,0c-20.7-7.6-21.8-24.5-21.9-25.2c0-0.1,0-0.1,0-0.2c0-0.1-0.8-8.8,3.9-14.4c0.1,0,0.2,0,0.4,0
			c11.9,0,16.6,9.1,17.6,11.3c0,0,0,0,0,0.1V58z M82,32.4c-0.5-0.5-1.2-0.8-1.9-0.9c-11.3-0.7-18.7,5.1-22.6,10.5
			c-3.9-5.4-11.2-11.2-22.6-10.5c-0.7,0-1.4,0.4-1.9,0.9c-7.3,7.3-6.5,18.9-6.4,20c0,0.8,0.5,6.5,4.2,13.1
			c3.5,6.3,10.9,14.6,25.6,18.8c0.1,0,0.2,0,0.2,0.1h0c0.1,0,0.1,0,0.2,0c0.1,0,0.1,0,0.2,0c0.1,0,0.3,0,0.4,0c0.1,0,0.3,0,0.4,0
			c0.1,0,0.1,0,0.2,0c0.1,0,0.1,0,0.2,0c0.1,0,0.2,0,0.3-0.1c27.3-7.7,29.7-29.7,29.8-31.8C88.4,51.9,89.4,39.9,82,32.4z"/>
	</g>
</g>
</svg>
